Numix-Circle/48x48/apps/audacity.svg

<?xml version="1.0" encoding="UTF-8" standalone="no"?>
<svg
   xmlns:dc="http://purl.org/dc/elements/1.1/"
   xmlns:cc="http://creativecommons.org/ns#"
   xmlns:rdf="http://www.w3.org/1999/02/22-rdf-syntax-ns#"
   xmlns:svg="http://www.w3.org/2000/svg"
   xmlns="http://www.w3.org/2000/svg"
   xmlns:xlink="http://www.w3.org/1999/xlink"
   xmlns:sodipodi="http://sodipodi.sourceforge.net/DTD/sodipodi-0.dtd"
   xmlns:inkscape="http://www.inkscape.org/namespaces/inkscape"
   viewBox="0 0 48 48"
   id="svg2"
   version="1.1"
   inkscape:version="0.91 r"
   sodipodi:docname="audacity.svg">
  <metadata
     id="metadata65">
    <rdf:RDF>
      <cc:Work
         rdf:about="">
        <dc:format>image/svg+xml</dc:format>
        <dc:type
           rdf:resource="http://purl.org/dc/dcmitype/StillImage" />
        <dc:title></dc:title>
      </cc:Work>
    </rdf:RDF>
  </metadata>
  <sodipodi:namedview
     pagecolor="#ffffff"
     bordercolor="#666666"
     borderopacity="1"
     objecttolerance="10"
     gridtolerance="10"
     guidetolerance="10"
     inkscape:pageopacity="0"
     inkscape:pageshadow="2"
     inkscape:window-width="1215"
     inkscape:window-height="776"
     id="namedview63"
     showgrid="true"
     inkscape:zoom="12.708333"
     inkscape:cx="24.000001"
     inkscape:cy="24.000001"
     inkscape:window-x="65"
     inkscape:window-y="24"
     inkscape:window-maximized="1"
     inkscape:current-layer="svg2"
     showguides="true">
    <inkscape:grid
       type="xygrid"
       id="grid4193" />
  </sodipodi:namedview>
  <defs
     id="defs4">
    <linearGradient
       inkscape:collect="always"
       id="linearGradient4168">
      <stop
         style="stop-color:#e88ac6;stop-opacity:1"
         offset="0"
         id="stop4170" />
      <stop
         style="stop-color:#eb9bce;stop-opacity:1"
         offset="1"
         id="stop4172" />
    </linearGradient>
    <linearGradient
       inkscape:collect="always"
       xlink:href="#linearGradient4168"
       id="linearGradient4160"
       x1="24"
       y1="47"
       x2="24"
       y2="1"
       gradientUnits="userSpaceOnUse" />
    <linearGradient
       inkscape:collect="always"
       xlink:href="#linearGradient4168"
       id="linearGradient4155"
       gradientUnits="userSpaceOnUse"
       x1="24"
       y1="47"
       x2="24"
       y2="1" />
  </defs>
  <g
     id="g21">
    <path
       d="m 36.31 5 c 5.859 4.062 9.688 10.831 9.688 18.5 c 0 12.426 -10.07 22.5 -22.5 22.5 c -7.669 0 -14.438 -3.828 -18.5 -9.688 c 1.037 1.822 2.306 3.499 3.781 4.969 c 4.085 3.712 9.514 5.969 15.469 5.969 c 12.703 0 23 -10.298 23 -23 c 0 -5.954 -2.256 -11.384 -5.969 -15.469 c -1.469 -1.475 -3.147 -2.744 -4.969 -3.781 z m 4.969 3.781 c 3.854 4.113 6.219 9.637 6.219 15.719 c 0 12.703 -10.297 23 -23 23 c -6.081 0 -11.606 -2.364 -15.719 -6.219 c 4.16 4.144 9.883 6.719 16.219 6.719 c 12.703 0 23 -10.298 23 -23 c 0 -6.335 -2.575 -12.06 -6.719 -16.219 z"
       opacity="0.05"
       id="path23" />
    <path
       d="m 41.28 8.781 c 3.712 4.085 5.969 9.514 5.969 15.469 c 0 12.703 -10.297 23 -23 23 c -5.954 0 -11.384 -2.256 -15.469 -5.969 c 4.113 3.854 9.637 6.219 15.719 6.219 c 12.703 0 23 -10.298 23 -23 c 0 -6.081 -2.364 -11.606 -6.219 -15.719 z"
       opacity="0.1"
       id="path25" />
    <path
       d="m 31.25 2.375 c 8.615 3.154 14.75 11.417 14.75 21.13 c 0 12.426 -10.07 22.5 -22.5 22.5 c -9.708 0 -17.971 -6.135 -21.12 -14.75 a 23 23 0 0 0 44.875 -7 a 23 23 0 0 0 -16 -21.875 z"
       opacity="0.2"
       id="path27" />
  </g>
  <g
     id="g29"
     style="stroke:none;fill-opacity:1.0;fill:url(#linearGradient4160)">
    <path
       d="m 24 1 c 12.703 0 23 10.297 23 23 c 0 12.703 -10.297 23 -23 23 -12.703 0 -23 -10.297 -23 -23 0 -12.703 10.297 -23 23 -23 z"
       id="path31"
       style="stroke:none;fill-opacity:1.0;fill:url(#linearGradient4155)"
       fill-opacity="1"
       fill="url(#linearGradient3764)" />
  </g>
  <g
     id="g33" />
  <g
     id="g59">
    <path
       d="m 40.03 7.531 c 3.712 4.084 5.969 9.514 5.969 15.469 0 12.703 -10.297 23 -23 23 c -5.954 0 -11.384 -2.256 -15.469 -5.969 4.178 4.291 10.01 6.969 16.469 6.969 c 12.703 0 23 -10.298 23 -23 0 -6.462 -2.677 -12.291 -6.969 -16.469 z"
       opacity="0.1"
       id="path61" />
  </g>
  <g
     transform="translate(1,1)"
     id="g4575-0"
     style="stroke:none;stroke-opacity:1;fill:#000000;fill-opacity:1;opacity:0.1">
    <g
       style="fill:#000000;fill-opacity:1;stroke:none;stroke-opacity:1"
       id="g4-1"
       transform="translate(0,-1006.3622)" />
  </g>
  <g
     id="g4575-06"
     transform="matrix(0.875,0,0,0.86666667,4,5.1999999)"
     style="fill:#000000;fill-opacity:1;opacity:0.1">
    <g
       style="fill:#000000;fill-opacity:1"
       id="g4-5"
       transform="translate(0,-1006.3622)" />
    <g
       id="g5115-7"
       style="fill:#000000;fill-opacity:1">
      <path
         sodipodi:nodetypes="ccccccccccccccccccccccccc"
         style="fill:#000000;fill-opacity:1;fill-rule:evenodd;stroke:none;stroke-width:1px;stroke-linecap:butt;stroke-linejoin:miter;stroke-opacity:1"
         d="M 16,27.999574 17,35 l 1,-2 1,4 2,-6 1,8 2,-5 1,3 1,-7 2,7 1,-6 2,6 1,-9.000426 L 31,22 l -1,3 -1,-7 -1,4 -2,-5 -1,7 -2,-8 -1,7 -1,-6 -2,8 -2,-5 z"
         id="path4345-3-1"
         inkscape:connector-curvature="0" />
      <path
         inkscape:connector-curvature="0"
         style="fill:#000000;fill-opacity:1"
         d="m 24,11 c -4.87037,0 -7.553872,2.835 -8.78125,5.5625 C 14.369088,18.450633 14.140423,20.271861 14.0625,21.25 10.579637,22.115657 8,25.24939 8,29 c 0,4.4182 3.581722,7.999615 8,7.999615 l 0,-15 c 0,0 0.0086,-2.320865 1.03125,-4.593365 C 18.053872,15.13385 19.87037,13 24,13 c 4.12963,0 5.946128,2.13385 6.96875,4.40625 C 31.991372,19.67875 32,22 32,22 l 0,15 c 4.418278,0 8,-3.5818 8,-8 0,-3.75061 -2.579637,-6.884343 -6.0625,-7.75 C 33.85957,20.271861 33.630892,18.450633 32.78125,16.5625 31.553872,13.835 28.87037,11 24,11 Z"
         transform="translate(0,-2)"
         id="path6-1"
         sodipodi:nodetypes="sscsccsscccscss" />
      <path
         style="fill:#000000;fill-opacity:1;fill-rule:evenodd;stroke:none;stroke-width:1px;stroke-linecap:butt;stroke-linejoin:miter;stroke-opacity:1"
         d="m 16,28 1,3 1,-3 1,5 2,-6 1,8 2,-5 1,3 1,-7 2,7 1,-6 2,6 1,-5 -1,-2 -1,3 -1,-7 -1,4 -2,-5 -1,7 -2,-8 -1,7 -1,-6 -2,8 -2,-5 z"
         id="path4345-35"
         inkscape:connector-curvature="0" />
    </g>
  </g>
  <g
     transform="matrix(0.875,0,0,0.86666667,3,-867.98058)"
     id="g4"
     style="fill:#003898;fill-opacity:1" />
  <path
     sodipodi:nodetypes="ccccccccccccccccccccccccc"
     style="fill:#f6e82d;fill-opacity:1;fill-rule:evenodd;stroke:none;stroke-width:1px;stroke-linecap:butt;stroke-linejoin:miter;stroke-opacity:1"
     d="M 17,28.466297 17.875,34.533333 18.75,32.8 l 0.875,3.466667 1.75,-5.2 L 22.25,38 24,33.666667 l 0.875,2.6 L 25.75,30.2 l 1.75,6.066667 0.875,-5.2 1.75,5.2 0.875,-7.80037 -0.875,-5.19963 -0.875,2.6 L 28.375,19.8 27.5,23.266667 25.75,18.933333 24.875,25 l -1.75,-6.933333 -0.875,6.066666 -0.875,-5.2 -1.75,6.933334 -1.75,-4.333334 z"
     id="path4345-3"
     inkscape:connector-curvature="0" />
  <path
     inkscape:connector-curvature="0"
     style="fill:#2e2e7b;fill-opacity:1"
     d="m 24,12 c -4.261574,0 -6.609638,2.457 -7.683594,4.820833 -0.743454,1.636382 -0.943536,3.21478 -1.011718,4.0625 C 12.257182,21.633569 10,24.349471 10,27.6 c 0,3.829107 3.134007,6.933 7,6.933 l 0,-13 c 0,0 0.0075,-2.011417 0.902344,-3.980917 0.894794,-1.969413 2.48423,-3.81875 6.097656,-3.81875 3.613426,0 5.202862,1.849337 6.097656,3.81875 C 30.99245,19.521583 31,21.533333 31,21.533333 l 0,13 c 3.865993,0 7,-3.104226 7,-6.933333 0,-3.250529 -2.257182,-5.966431 -5.304688,-6.716667 -0.06819,-0.84772 -0.268282,-2.426118 -1.011718,-4.0625 C 30.609638,14.457 28.261574,12 24,12 Z"
     id="path6"
     sodipodi:nodetypes="sscsccsscccscss" />
  <path
     style="fill:#e83628;fill-opacity:1;fill-rule:evenodd;stroke:none;stroke-width:1px;stroke-linecap:butt;stroke-linejoin:miter;stroke-opacity:1"
     d="m 17,28.466667 0.875,2.6 0.875,-2.6 L 19.625,32.8 21.375,27.6 22.25,34.533333 24,30.2 24.875,32.8 25.75,26.733333 27.5,32.8 l 0.875,-5.2 1.75,5.2 0.875,-4.333333 -0.875,-1.733334 -0.875,2.6 L 28.375,23.266667 27.5,26.733333 25.75,22.4 24.875,28.466667 23.125,21.533333 22.25,27.6 21.375,22.4 19.625,29.333333 17.875,25 Z"
     id="path4345"
     inkscape:connector-curvature="0" />
</svg>

<svg xmlns="http://www.w3.org/2000/svg" viewBox="0 0 48 48"><defs><linearGradient id="linearGradient4160" y1="47" x2="0" y2="1" gradientUnits="userSpaceOnUse"><stop stop-color="#e88ac6" stop-opacity="1"/><stop offset="1" stop-color="#eb9bce" stop-opacity="1"/></linearGradient></defs><g><path d="m 36.31 5 c 5.859 4.062 9.688 10.831 9.688 18.5 c 0 12.426 -10.07 22.5 -22.5 22.5 c -7.669 0 -14.438 -3.828 -18.5 -9.688 c 1.037 1.822 2.306 3.499 3.781 4.969 c 4.085 3.712 9.514 5.969 15.469 5.969 c 12.703 0 23 -10.298 23 -23 c 0 -5.954 -2.256 -11.384 -5.969 -15.469 c -1.469 -1.475 -3.147 -2.744 -4.969 -3.781 z m 4.969 3.781 c 3.854 4.113 6.219 9.637 6.219 15.719 c 0 12.703 -10.297 23 -23 23 c -6.081 0 -11.606 -2.364 -15.719 -6.219 c 4.16 4.144 9.883 6.719 16.219 6.719 c 12.703 0 23 -10.298 23 -23 c 0 -6.335 -2.575 -12.06 -6.719 -16.219 z" opacity="0.05"/><path d="m 41.28 8.781 c 3.712 4.085 5.969 9.514 5.969 15.469 c 0 12.703 -10.297 23 -23 23 c -5.954 0 -11.384 -2.256 -15.469 -5.969 c 4.113 3.854 9.637 6.219 15.719 6.219 c 12.703 0 23 -10.298 23 -23 c 0 -6.081 -2.364 -11.606 -6.219 -15.719 z" opacity="0.1"/><path d="m 31.25 2.375 c 8.615 3.154 14.75 11.417 14.75 21.13 c 0 12.426 -10.07 22.5 -22.5 22.5 c -9.708 0 -17.971 -6.135 -21.12 -14.75 a 23 23 0 0 0 44.875 -7 a 23 23 0 0 0 -16 -21.875 z" opacity="0.2"/></g><g fill="url(#linearGradient4160)" stroke="none" fill-opacity="1"><path d="m 24 1 c 12.703 0 23 10.297 23 23 c 0 12.703 -10.297 23 -23 23 -12.703 0 -23 -10.297 -23 -23 0 -12.703 10.297 -23 23 -23 z" fill-opacity="1"/></g><g><path d="m 40.03 7.531 c 3.712 4.084 5.969 9.514 5.969 15.469 0 12.703 -10.297 23 -23 23 c -5.954 0 -11.384 -2.256 -15.469 -5.969 4.178 4.291 10.01 6.969 16.469 6.969 c 12.703 0 23 -10.298 23 -23 0 -6.462 -2.677 -12.291 -6.969 -16.469 z" opacity="0.1"/></g><g transform="matrix(0.875,0,0,0.86666667,4,5.1999999)" opacity="0.1" fill="#000" fill-opacity="1"><g fill="#000"><path d="m 16 28 1 7 l 1 -2 1 4 2 -6 1 8 2 -5 1 3 1 -7 2 7 1 -6 2 6 1 -9 l -1 -6 l -1 3 -1 -7 -1 4 -2 -5 -1 7 -2 -8 -1 7 -1 -6 -2 8 -2 -5 z" fill="#000" fill-rule="evenodd" stroke="none"/><path d="m 24 11 c -4.87 0 -7.554 2.835 -8.781 5.563 c -0.85 1.888 -1.078 3.709 -1.156 4.688 -3.483 0.866 -6.06 3.999 -6.06 7.75 c 0 4.418 3.582 8 8 8 l 0 -15 c 0 0 0.009 -2.321 1.031 -4.593 c 1.023 -2.272 2.839 -4.406 6.969 -4.406 c 4.13 0 5.946 2.134 6.969 4.406 c 1.023 2.273 1.031 4.594 1.031 4.594 l 0 15 c 4.418 0 8 -3.582 8 -8 0 -3.751 -2.58 -6.884 -6.06 -7.75 c -0.078 -0.978 -0.307 -2.799 -1.156 -4.688 -1.227 -2.727 -3.911 -5.563 -8.781 -5.563" transform="translate(0,-2)" fill="#000"/></g></g><g><path d="m 17 28.466 0.875 6.067 0.875 -1.733 l 0.875 3.467 1.75 -5.2 l 0.875 6.933 1.75 -4.333 l 0.875 2.6 l 0.875 -6.067 l 1.75 6.067 0.875 -5.2 1.75 5.2 0.875 -7.8 -0.875 -5.2 -0.875 2.6 l -0.875 -6.067 -0.875 3.467 -1.75 -4.333 -0.875 6.067 l -1.75 -6.933 -0.875 6.067 -0.875 -5.2 -1.75 6.933 -1.75 -4.333 z" fill="#f6e82d" fill-rule="evenodd" stroke="none" fill-opacity="1"/><path d="m 24 12 c -4.262 0 -6.61 2.457 -7.684 4.821 -0.743 1.636 -0.944 3.215 -1.012 4.063 c -3.048 0.75 -5.305 3.466 -5.305 6.717 c 0 3.829 3.134 6.933 7 6.933 l 0 -13 c 0 0 0.008 -2.01 0.902 -3.981 0.895 -1.969 2.484 -3.819 6.098 -3.819 3.613 0 5.203 1.849 6.098 3.819 c 0.895 1.969 0.902 3.981 0.902 3.981 l 0 13 c 3.866 0 7 -3.104 7 -6.933 0 -3.251 -2.257 -5.966 -5.305 -6.717 -0.068 -0.848 -0.268 -2.426 -1.012 -4.063 c -1.074 -2.364 -3.422 -4.821 -7.684 -4.821" fill="#2e2e7b" fill-opacity="1"/><path d="m 17 28.467 0.875 2.6 0.875 -2.6 l 0.875 4.333 1.75 -5.2 0.875 6.933 1.75 -4.333 0.875 2.6 0.875 -6.067 1.75 6.067 l 0.875 -5.2 1.75 5.2 0.875 -4.333 -0.875 -1.733 -0.875 2.6 l -0.875 -6.067 -0.875 3.467 -1.75 -4.333 -0.875 6.067 -1.75 -6.933 -0.875 6.067 -0.875 -5.2 -1.75 6.933 -1.75 -4.333" fill="#e83628" fill-rule="evenodd" stroke="none" fill-opacity="1"/></g></svg>
